godot/editor/icons/PackedFloat32Array.svg

<svg height="12" viewBox="0 0 16 12" width="16" xmlns="http://www.w3.org/2000/svg"><path d="m0 0v12h4v-2h-2v-8h2v-2zm12 0v2h2v8h-2v2h4v-12z" fill="#e0e0e0"/><path d="m6 2a3 3 0 0 0 -3 3v5h2v-2h1v-2h-1v-1a1 1 0 0 1 1-1zm1 0v5a3 3 0 0 0 3 3v-2a1 1 0 0 1 -1-1v-5zm3 0v5a3 3 0 0 0 3 3v-2a1 1 0 0 1 -1-1v-1h1v-2h-1v-2z" fill="#35d4f4"/><path d="m7 2v5a3 3 0 0 0 3 3v-2a1 1 0 0 1 -1-1v-5z" fill="#fff" fill-opacity=".39216"/></svg>

<svg height="12" viewBox="0 0 16 12" width="16" xmlns="http://www.w3.org/2000/svg"><path d="M0 0v12h4v-2H2V2h2V0zm12 0v2h2v8h-2v2h4V0z" fill="#e0e0e0"/><path d="M6 2a3 3 0 0 0-3 3v5h2V8h1V6H5V5a1 1 0 0 1 1-1zm1 0v5a3 3 0 0 0 3 3V8a1 1 0 0 1-1-1V2zm3 0v5a3 3 0 0 0 3 3V8a1 1 0 0 1-1-1V6h1V4h-1V2z" fill="#35d4f4"/><path d="M7 2v5a3 3 0 0 0 3 3V8a1 1 0 0 1-1-1V2z" fill="#fff" fill-opacity=".4"/></svg>
